X: 21
T: Wou'd You have a Young Virgin
T: or Poor Robin's Maggot
R: jig
M: 6/8
L: 1/8
Z: 2011 John Chambers <jc:trillian.mit.edu>
B: Andrew Shaw "Mr Kynaston's Famous Dance" p.21
P: Play AABB
K: F
%
"A"[|] A/B/ |\
"F"c>dc "C"c>dc | "F"f2c c2"C"A/B/ | "F"c>dc c>dc | "C"g2c c2A/B/ |\
"F"c>dc "Gm"c>dc | "F/a"f2c "C"g2c | "Bb"agf "C"cfe | "F"f2F F2 :|
"B"|: "C"f/g/ |\
"F"agf agf | "C"g2c c3 | "F"agf "Dm"agf | "Gm"b2g "C"g3 |\
"F"agf "Gm"agf | "F/a"agf "Bb"bag | "F"agf "C"e>de | "F"f2F F2 :|
